X: 41
P: No. XLI.
M: 6/8
L: 1/8
K: G
V: 1
|:\
|:\
(g/a/b)g (f/g/a)f | (e/f/g)B TA2G | (g/a/b)g (f/g/a)f | e3 g3 |\
(g/a/b)g (f/g/a)f | (e/f/g)B TA2G | G2d dBd | e3 g3 :|
V: 2 clef=bass middle=d
|:\
|:\

